public/images/iconbox/icon1.svg

<svg width="60" height="60" viewBox="0 0 60 60" fill="none" xmlns="http://www.w3.org/2000/svg">
<rect width="60" height="60" rx="4" fill="#2920D2"/>
<path d="M46.9365 23.7509C46.9363 23.7509 46.9363 23.7509 46.9361 23.7509C46.2842 23.7509 45.6698 24.0062 45.2064 24.4696C44.7428 24.9331 44.4875 25.5476 44.4875 26.1996L44.4874 32.9682C44.2167 32.8755 43.9294 32.8261 43.6339 32.8249C43.6303 32.8249 43.6267 32.8249 43.6231 32.8249C42.9189 32.8249 42.2581 33.0958 41.7615 33.5886L36.7314 38.5791C36.7119 38.5984 36.6937 38.6191 36.677 38.6408C36.0173 39.4993 35.754 40.4786 35.8942 41.5515L36.163 43.6081L36.0978 43.5906C35.8354 43.5205 35.5611 43.5564 35.3252 43.6927C35.0895 43.8288 34.9209 44.0483 34.8505 44.3106L34.4147 45.9374C34.3444 46.1998 34.3807 46.474 34.5168 46.7099C34.653 46.9457 34.8725 47.1143 35.1348 47.1845L43.9364 49.5429C44.024 49.5664 44.1127 49.578 44.201 49.578C44.3774 49.578 44.5518 49.5316 44.709 49.4409C44.9448 49.3048 45.1134 49.0853 45.1837 48.823L45.6196 47.1962C45.6898 46.9338 45.6535 46.6596 45.5174 46.4237C45.3812 46.1879 45.1617 46.0193 44.8995 45.9491L44.6621 45.8855C44.5467 44.7723 44.8023 43.982 45.5118 43.2189L48.2474 40.2764C49.0025 39.4642 49.3853 38.5327 49.3853 37.5077L49.3854 26.1996C49.3853 24.8496 48.2868 23.7511 46.9365 23.7509ZM44.0514 48.302L35.6555 46.0523L35.9825 44.8317L44.3784 47.0814L44.0514 48.302ZM48.1568 37.5077C48.1568 38.2222 47.8921 38.8543 47.3476 39.4399L44.6121 42.3824C43.7597 43.2993 43.3748 44.3 43.4094 45.5498L37.4469 43.9522L37.1124 41.3923C37.0162 40.6567 37.1846 40.0115 37.6272 39.4208L42.6267 34.4606C42.8916 34.1977 43.2453 34.0533 43.6233 34.0533H43.6292C44.0093 34.0548 44.3642 34.2022 44.6283 34.4685C45.1779 35.0225 45.1743 35.9203 44.6204 36.47L41.9333 39.136C41.6925 39.3749 41.691 39.7638 41.9299 40.0046C42.1688 40.2453 42.5578 40.2469 42.7985 40.008L45.4854 37.3421C46.4415 36.3935 46.5192 34.89 45.7158 33.8505L45.7159 26.1996C45.7159 25.8756 45.8434 25.5697 46.075 25.3382C46.3065 25.1067 46.6123 24.9792 46.9361 24.9792H46.9363C47.6093 24.9793 48.1568 25.5268 48.1568 26.1996L48.1568 37.5077ZM25.1501 44.3107C25.0798 44.0484 24.9112 43.829 24.6754 43.6928C24.4395 43.5566 24.1651 43.5204 23.9028 43.5907L23.8375 43.6082L24.1063 41.5515C24.2466 40.4786 23.9832 39.4993 23.3236 38.6409C23.3069 38.6191 23.2887 38.5984 23.2692 38.5791L18.2391 33.5886C17.7425 33.0958 17.0818 32.8249 16.3776 32.8249C16.374 32.8249 16.3703 32.825 16.3667 32.825C16.0712 32.8261 15.7839 32.8756 15.5132 32.9682L15.5131 26.1996C15.5131 25.5476 15.2578 24.9332 14.7943 24.4696C14.3308 24.0061 13.7165 23.7509 13.0645 23.7509C13.0644 23.7509 13.0642 23.7509 13.0641 23.7509C11.7139 23.7511 10.6152 24.8496 10.6152 26.1997L10.6153 37.5077C10.6153 38.5327 10.9982 39.4642 11.7532 40.2764L14.4888 43.2189C15.1983 43.982 15.4539 44.7724 15.3385 45.8855L15.1012 45.9491C14.8389 46.0193 14.6194 46.1879 14.4832 46.4238C14.347 46.6596 14.3108 46.9341 14.381 47.1963L14.8169 48.823C14.8872 49.0853 15.0558 49.3047 15.2916 49.4409C15.4489 49.5317 15.6232 49.578 15.7997 49.578C15.8879 49.578 15.9767 49.5664 16.0641 49.543L24.866 47.1846C25.4084 47.0391 25.7314 46.4796 25.586 45.9375L25.1501 44.3107ZM15.3884 42.3825L12.6529 39.44C12.1084 38.8543 11.8438 38.2224 11.8438 37.5078L11.8436 26.1997C11.8436 25.5269 12.3912 24.9794 13.0641 24.9793C13.3881 24.9792 13.694 25.1068 13.9255 25.3383C14.1571 25.5699 14.2846 25.8758 14.2846 26.1997L14.2847 33.8506C13.4813 34.8901 13.5589 36.3936 14.515 37.3422L17.2019 40.0081C17.4427 40.2469 17.8317 40.2454 18.0705 40.0047C18.3095 39.7638 18.3079 39.375 18.0672 39.1361L15.3802 36.4702C14.8263 35.9206 14.8227 35.0226 15.3723 34.4688C15.6364 34.2024 15.9913 34.055 16.3715 34.0536C16.3735 34.0535 16.3754 34.0535 16.3774 34.0535C16.7553 34.0535 17.109 34.1981 17.3739 34.4608L22.3734 39.421C22.816 40.0115 22.9844 40.6569 22.8882 41.3925L22.5537 43.9524L16.5912 45.5501C16.6256 44.3 16.2408 43.2993 15.3884 42.3825ZM15.9491 48.302L15.622 47.0813L24.0178 44.8317L24.3449 46.0523L15.9491 48.302ZM34.8703 39.955V37.4374C34.8703 36.8953 35.1268 36.444 35.5927 36.1663C37.1921 35.2134 38.5317 33.8587 39.4666 32.2489C40.4304 30.5892 40.9399 28.6919 40.9399 26.7621C40.9399 20.73 36.0324 15.8225 30.0002 15.8225C23.9681 15.8225 19.0606 20.73 19.0606 26.7621C19.0606 28.6919 19.5701 30.5892 20.5339 32.2489C21.4688 33.8588 22.8084 35.2134 24.4078 36.1663C24.8736 36.4439 25.1302 36.8953 25.1302 37.4374V39.955C25.1302 40.8624 25.7275 41.6326 26.5496 41.8937V41.9344C26.5496 43.4278 27.7645 44.6427 29.2578 44.6427H30.7427C32.2361 44.6427 33.4509 43.4278 33.4509 41.9344V41.8937C34.2729 41.6325 34.8703 40.8623 34.8703 39.955ZM25.0365 35.1109C22.1081 33.3662 20.289 30.1671 20.289 26.7621C20.289 21.4074 24.6454 17.051 30.0001 17.051C35.355 17.051 39.7114 21.4074 39.7114 26.7621C39.7114 30.1671 37.8922 33.3662 34.9638 35.111C34.1237 35.6117 33.6418 36.4596 33.6418 37.4374V38.3038H26.3586V37.4374C26.3586 36.4596 25.8767 35.6117 25.0365 35.1109ZM30.7427 43.4142H29.2577C28.4601 43.4142 27.8096 42.7794 27.7807 41.9886H32.2196C32.1908 42.7794 31.5403 43.4142 30.7427 43.4142ZM32.8366 40.7602H27.1637C26.7197 40.7602 26.3586 40.399 26.3586 39.955V39.5322H33.6418V39.955C33.6418 40.399 33.2806 40.7602 32.8366 40.7602ZM40.6984 20.5037C40.5288 20.2099 40.6294 19.8343 40.9232 19.6647L43.2422 18.3258C43.536 18.1562 43.9116 18.2569 44.0812 18.5506C44.2508 18.8444 44.1502 19.22 43.8564 19.3896L41.5374 20.7285C41.4407 20.7844 41.3351 20.8109 41.2309 20.8109C41.0186 20.8109 40.8122 20.7007 40.6984 20.5037ZM29.386 13.7129V11.0351C29.386 10.6959 29.661 10.4209 30.0002 10.4209C30.3394 10.4209 30.6144 10.6959 30.6144 11.0351V13.7129C30.6144 14.0521 30.3394 14.3271 30.0002 14.3271C29.661 14.3271 29.386 14.052 29.386 13.7129ZM21.6457 13.4383C21.4761 13.1445 21.5768 12.7688 21.8705 12.5992C22.1643 12.4297 22.5399 12.5303 22.7095 12.8241L24.0485 15.143C24.2181 15.4367 24.1174 15.8124 23.8237 15.982C23.727 16.0379 23.6214 16.0644 23.5171 16.0644C23.3048 16.0644 23.0983 15.9542 22.9846 15.7572L21.6457 13.4383ZM15.9191 18.5505C16.0887 18.2567 16.4644 18.1561 16.7582 18.3257L19.0772 19.6646C19.3709 19.8342 19.4716 20.2099 19.302 20.5036C19.1882 20.7006 18.9817 20.8108 18.7694 20.8108C18.6653 20.8108 18.5596 20.7842 18.4629 20.7284L16.1439 19.3896C15.8502 19.22 15.7495 18.8443 15.9191 18.5505ZM35.952 15.143L37.2908 12.8241C37.4604 12.5302 37.8361 12.4296 38.1299 12.5992C38.4236 12.7688 38.5243 13.1445 38.3547 13.4383L37.0158 15.7572C36.902 15.9542 36.6956 16.0644 36.4833 16.0644C36.3791 16.0644 36.2734 16.0378 36.1767 15.982C35.883 15.8124 35.7824 15.4368 35.952 15.143ZM28.0673 33.8396V34.6768C28.0673 35.016 28.3424 35.291 28.6816 35.291H31.3189C31.6581 35.291 31.9331 35.016 31.9331 34.6768V33.8396C32.5267 33.678 33.0941 33.4427 33.6287 33.1368L34.221 33.7291C34.3362 33.8443 34.4924 33.9091 34.6554 33.9091C34.8183 33.9091 34.9745 33.8443 35.0897 33.7292L36.9546 31.8643C37.0698 31.7491 37.1345 31.5929 37.1345 31.43C37.1345 31.2671 37.0698 31.1109 36.9546 30.9956L36.3622 30.4032C36.6683 29.8684 36.9035 29.3011 37.0651 28.7077H37.9024C38.2416 28.7077 38.5166 28.4326 38.5166 28.0934V25.4561C38.5166 25.1169 38.2416 24.8419 37.9024 24.8419H37.065C36.9033 24.2484 36.6682 23.681 36.3622 23.1464L36.9546 22.5539C37.1946 22.314 37.1945 21.9252 36.9546 21.6854L35.0898 19.8204C34.9746 19.7053 34.8183 19.6406 34.6554 19.6406C34.4925 19.6406 34.3363 19.7053 34.2211 19.8204L33.6286 20.4129C33.0938 20.107 32.5264 19.8717 31.9331 19.7101V18.8728C31.9331 18.5336 31.6581 18.2586 31.3189 18.2586H28.6816C28.3424 18.2586 28.0673 18.5336 28.0673 18.8728V19.71C27.4738 19.8717 26.9064 20.1068 26.3718 20.4128L25.7794 19.8204C25.5395 19.5806 25.1506 19.5806 24.9108 19.8204L23.0459 21.6852C22.806 21.9252 22.806 22.314 23.0459 22.5539L23.6383 23.1463C23.3323 23.6811 23.097 24.2484 22.9354 24.8418H22.0982C21.759 24.8418 21.484 25.1168 21.484 25.456V28.0934C21.484 28.4326 21.759 28.7076 22.0982 28.7076H22.9354C23.0971 29.3011 23.3323 29.8685 23.6382 30.4032L23.0459 30.9956C22.9307 31.1108 22.866 31.267 22.866 31.4299C22.866 31.5928 22.9307 31.749 23.0459 31.8642L24.9108 33.7291C25.1506 33.9688 25.5395 33.9689 25.7794 33.7291L26.3718 33.1367C26.9066 33.4428 27.4739 33.678 28.0673 33.8396ZM25.8468 31.9244L25.3451 32.4262L24.3488 31.4299L24.8506 30.9282C25.0577 30.7211 25.0897 30.3965 24.9272 30.1528C24.4836 29.4883 24.1797 28.755 24.0237 27.9732C23.9665 27.686 23.7143 27.4791 23.4214 27.4791H22.7125V26.0702H23.4214C23.7143 26.0702 23.9665 25.8633 24.0238 25.576C24.1795 24.7947 24.4835 24.0614 24.9273 23.3965C25.0899 23.1528 25.0578 22.8284 24.8506 22.6212L24.3488 22.1194L25.3451 21.1231L25.8469 21.625C26.054 21.832 26.3785 21.864 26.6222 21.7015C27.2868 21.258 28.0201 20.954 28.8018 20.7981C29.089 20.7409 29.2959 20.4887 29.2959 20.1957V19.4867H30.7048V20.1957C30.7048 20.4886 30.9117 20.7409 31.199 20.7981C31.9803 20.9538 32.7136 21.2578 33.3785 21.7016C33.6222 21.8642 33.9467 21.8322 34.1538 21.625L34.6557 21.1231L35.6519 22.1194L35.15 22.6213C34.9429 22.8284 34.9109 23.153 35.0735 23.3966C35.517 24.0611 35.8209 24.7944 35.9769 25.576C36.0341 25.8633 36.2863 26.0702 36.5792 26.0702H37.2883V27.4791H36.5792C36.2863 27.4791 36.0341 27.6859 35.9768 27.9733C35.8211 28.7546 35.5172 29.4879 35.0734 30.1528C34.9108 30.3965 34.9429 30.721 35.15 30.9282L35.6519 31.4299L34.6556 32.4262L34.1538 31.9244C33.9468 31.7173 33.6222 31.6853 33.3785 31.8479C32.714 32.2914 31.9807 32.5953 31.199 32.7512C30.9118 32.8085 30.7049 33.0607 30.7049 33.3536V34.0626H29.296V33.3536C29.296 33.0607 29.0892 32.8085 28.8018 32.7512C28.0206 32.5955 27.2873 32.2917 26.6223 31.8479C26.3785 31.6853 26.0541 31.7174 25.8468 31.9244ZM30.0002 31.4843C32.5971 31.4843 34.7098 29.3716 34.7098 26.7748C34.7098 24.1779 32.5971 22.0652 30.0002 22.0652C27.4034 22.0652 25.2907 24.178 25.2907 26.7748C25.2907 29.3717 27.4034 31.4843 30.0002 31.4843ZM29.6339 30.2365V27.6236C29.6339 27.2843 29.3589 27.0093 29.0197 27.0093H28.7818L30.0002 25.4327L31.2186 27.0093H30.9808C30.6416 27.0093 30.3665 27.2843 30.3665 27.6236V30.2365C30.2461 30.2492 30.124 30.2559 30.0002 30.2559C29.8765 30.2559 29.7543 30.2491 29.6339 30.2365ZM30.0002 23.2937C31.9197 23.2937 33.4813 24.8553 33.4813 26.7748C33.4813 28.1198 32.7142 29.2882 31.595 29.8676V28.2379H31.9386H31.9393C32.2754 28.2379 32.5765 28.0501 32.7251 27.7478C32.8729 27.447 32.8369 27.0946 32.6312 26.8284L30.6923 24.3192C30.5254 24.1032 30.2731 23.9793 30.0001 23.9793C29.7273 23.9794 29.4751 24.1032 29.3081 24.3193L27.3692 26.8284C27.1635 27.0947 27.1276 27.447 27.2753 27.7477C27.4239 28.0501 27.725 28.2379 28.061 28.2379H28.0613H28.4054V29.8676C27.2861 29.2882 26.519 28.1198 26.519 26.7748C26.5191 24.8553 28.0807 23.2937 30.0002 23.2937Z" fill="white"/>
</svg>

<svg id="Capa_1" data-name="Capa 1" xmlns="http://www.w3.org/2000/svg" width="21.17mm" height="21.17mm" viewBox="0 0 60 60"><defs><style>.cls-1{fill:#2f56dc;}.cls-2{fill:#fff;}</style></defs><rect class="cls-1" width="60" height="60" rx="4"/><path class="cls-2" d="M46.94,23.75h0a2.46,2.46,0,0,0-2.45,2.45V33a3,3,0,0,0-.86-.15h0a2.65,2.65,0,0,0-1.86.77l-5,5,0,.06a3.82,3.82,0,0,0-.79,2.91l.27,2.06-.06,0a1,1,0,0,0-1.25.72l-.44,1.63a1,1,0,0,0,.11.77,1,1,0,0,0,.61.47l8.81,2.36a.75.75,0,0,0,.26,0,1,1,0,0,0,.51-.14,1,1,0,0,0,.47-.62l.44-1.62a1.06,1.06,0,0,0-.1-.78A1,1,0,0,0,44.9,46l-.24-.06a3.1,3.1,0,0,1,.85-2.67l2.74-2.94a4,4,0,0,0,1.14-2.77V26.2A2.45,2.45,0,0,0,46.94,23.75ZM44.05,48.3l-8.39-2.25L36,44.83l8.4,2.25Zm4.11-10.79a2.78,2.78,0,0,1-.81,1.93l-2.74,2.94a4.21,4.21,0,0,0-1.2,3.17l-6-1.6-.34-2.56a2.59,2.59,0,0,1,.52-2l5-5a1.41,1.41,0,0,1,1-.41h0a1.4,1.4,0,0,1,1,.42,1.42,1.42,0,0,1,0,2l-2.69,2.67a.62.62,0,0,0,.87.87l2.69-2.67a2.66,2.66,0,0,0,.23-3.49V26.2a1.18,1.18,0,0,1,.36-.86,1.2,1.2,0,0,1,.86-.36h0a1.22,1.22,0,0,1,1.22,1.22Zm-23,6.8a1,1,0,0,0-.47-.62,1.06,1.06,0,0,0-.78-.1l-.06,0,.27-2.06a3.82,3.82,0,0,0-.79-2.91l-.05-.06-5-5a2.65,2.65,0,0,0-1.86-.77h0a3,3,0,0,0-.86.15V26.2a2.46,2.46,0,0,0-2.45-2.45h0a2.45,2.45,0,0,0-2.44,2.45V37.51a4,4,0,0,0,1.13,2.77l2.74,2.94a3.1,3.1,0,0,1,.85,2.67L15.1,46a1,1,0,0,0-.62.47,1.06,1.06,0,0,0-.1.78l.44,1.62a1,1,0,0,0,.47.62,1,1,0,0,0,.51.14.75.75,0,0,0,.26,0l8.81-2.36a1,1,0,0,0,.72-1.24Zm-9.76-1.93-2.74-2.94a2.78,2.78,0,0,1-.81-1.93V26.2A1.22,1.22,0,0,1,13.06,25a1.24,1.24,0,0,1,.87.36,1.21,1.21,0,0,1,.35.86v7.65a2.65,2.65,0,0,0,.24,3.49L17.2,40a.62.62,0,0,0,.87-.87l-2.69-2.67a1.42,1.42,0,0,1,0-2,1.4,1.4,0,0,1,1-.42h0a1.39,1.39,0,0,1,1,.41l5,5a2.59,2.59,0,0,1,.52,2L22.55,44l-6,1.6A4.21,4.21,0,0,0,15.39,42.38ZM16,48.3l-.33-1.22L24,44.83l.32,1.22ZM34.87,40V37.44a1.43,1.43,0,0,1,.72-1.27,11.12,11.12,0,0,0,3.88-3.92,10.94,10.94,0,1,0-18.94,0,11.12,11.12,0,0,0,3.88,3.92,1.43,1.43,0,0,1,.72,1.27V40a2,2,0,0,0,1.42,1.94v0a2.71,2.71,0,0,0,2.71,2.71h1.48a2.71,2.71,0,0,0,2.71-2.71v0A2,2,0,0,0,34.87,40ZM25,35.11a9.71,9.71,0,1,1,9.92,0,2.65,2.65,0,0,0-1.32,2.33v.86H26.36v-.86A2.65,2.65,0,0,0,25,35.11Zm5.7,8.3H29.26A1.48,1.48,0,0,1,27.78,42h4.44A1.48,1.48,0,0,1,30.74,43.41Zm2.1-2.65H27.16a.8.8,0,0,1-.8-.81v-.42h7.28V40A.8.8,0,0,1,32.84,40.76ZM40.7,20.5a.62.62,0,0,1,.22-.84l2.32-1.33a.61.61,0,1,1,.62,1.06l-2.32,1.34a.68.68,0,0,1-.31.08A.6.6,0,0,1,40.7,20.5ZM29.39,13.71V11a.61.61,0,1,1,1.22,0v2.67a.61.61,0,1,1-1.22,0Zm-7.74-.27a.61.61,0,1,1,1.06-.62l1.34,2.32a.61.61,0,0,1-.23.84.54.54,0,0,1-.3.08.63.63,0,0,1-.54-.3Zm-5.73,5.11a.62.62,0,0,1,.84-.22l2.32,1.33a.62.62,0,0,1,.22.84.6.6,0,0,1-.53.31.71.71,0,0,1-.31-.08l-2.32-1.34A.62.62,0,0,1,15.92,18.55Zm20-3.41,1.34-2.32a.61.61,0,0,1,1.06.62L37,15.76a.63.63,0,0,1-.54.3.54.54,0,0,1-.3-.08A.61.61,0,0,1,36,15.14Zm-7.88,18.7v.84a.61.61,0,0,0,.61.61h2.64a.61.61,0,0,0,.61-.61v-.84a7.43,7.43,0,0,0,1.7-.7l.59.59a.62.62,0,0,0,.87,0L37,31.86A.6.6,0,0,0,37,31l-.59-.6a7.38,7.38,0,0,0,.71-1.69h.83a.62.62,0,0,0,.62-.62V25.46a.62.62,0,0,0-.62-.62h-.84a6.93,6.93,0,0,0-.7-1.69l.59-.6a.6.6,0,0,0,0-.86l-1.86-1.87a.62.62,0,0,0-.87,0l-.59.59a7.43,7.43,0,0,0-1.7-.7v-.84a.61.61,0,0,0-.61-.61H28.68a.61.61,0,0,0-.61.61v.84a7.43,7.43,0,0,0-1.7.7l-.59-.59a.62.62,0,0,0-.87,0l-1.86,1.87a.6.6,0,0,0,0,.86l.59.6a6.93,6.93,0,0,0-.7,1.69H22.1a.62.62,0,0,0-.62.62v2.63a.62.62,0,0,0,.62.62h.84a6.93,6.93,0,0,0,.7,1.69l-.59.6a.6.6,0,0,0,0,.86l1.86,1.87a.62.62,0,0,0,.87,0l.59-.59A7.43,7.43,0,0,0,28.07,33.84Zm-2.22-1.92-.5.51-1-1,.5-.5a.62.62,0,0,0,.08-.78A6,6,0,0,1,24,28a.61.61,0,0,0-.6-.49h-.71V26.07h.71a.61.61,0,0,0,.6-.49,5.91,5.91,0,0,1,.91-2.18.62.62,0,0,0-.08-.78l-.5-.5,1-1,.5.5a.61.61,0,0,0,.77.08,6,6,0,0,1,2.18-.9.62.62,0,0,0,.5-.6v-.71h1.4v.71a.62.62,0,0,0,.5.6,6,6,0,0,1,2.18.9.61.61,0,0,0,.77-.08l.51-.5,1,1-.5.5a.62.62,0,0,0-.08.78A5.91,5.91,0,0,1,36,25.58a.61.61,0,0,0,.6.49h.71v1.41h-.71A.61.61,0,0,0,36,28a6,6,0,0,1-.91,2.18.62.62,0,0,0,.08.78l.5.5-1,1-.51-.51a.62.62,0,0,0-.77-.07,6,6,0,0,1-2.18.9.62.62,0,0,0-.5.6v.71H29.3v-.71a.62.62,0,0,0-.5-.6,6,6,0,0,1-2.18-.9A.62.62,0,0,0,25.85,31.92ZM30,31.48a4.71,4.71,0,1,0-4.71-4.71A4.71,4.71,0,0,0,30,31.48Zm-.37-1.24V27.62A.61.61,0,0,0,29,27h-.24L30,25.43,31.22,27H31a.61.61,0,0,0-.61.61v2.62l-.37,0ZM30,23.29a3.48,3.48,0,0,1,1.59,6.58V28.24h.35a.87.87,0,0,0,.69-1.41l-1.94-2.51A.85.85,0,0,0,30,24a.86.86,0,0,0-.69.34l-1.94,2.51a.85.85,0,0,0-.09.92.86.86,0,0,0,.78.49h.35v1.63A3.48,3.48,0,0,1,30,23.29Z" transform="translate(0 0)"/></svg>
